!!!OTL: Chouchou zhenjiao lang moxian
!!!ARE: Asia, China,ÿHubei, Xinchun
!! I, 445
!!!SCT: C1452
!!!YEM: Copyright 1995, estate of Helmut Schaffrath.
**kern
*ICvox
*Ivox
*M6/8
*k[f#c#g#d#]
*E:
{8b
8cc#
8ee
16cc#
16b
4b
=1
8b
8cc#
16cc#
16ee
4.ff#}
=2
{8ff#
16ff#
16ee
8cc#
4.b
=3
4ee
4cc#
4b}
=4
{8b
8b
16cc#
16ee
4.ff#
=5
8ff#
8ee
8cc#
4.b}
=6
{8ff#
8ff#
16ee
16cc#
4.b
=7
8b
8b
16cc#
16ee
4.ff#}
=8
{8ff#
16ff#
16ee
8cc#
4.b
=9
8ff#
8ee
8cc#
4.b}
==
!!!AGN: Shange, Wujuzi
!!!ONB: ESAC (Essen Associative Code) Database: HUANG
!!!AMT: compound duple
!!!AIN: vox
!!!EED: Helmut Schaffrath
!!!EEV: 1.0
*-
